Newaita-dark/apps/48/org.gnome.Fractal.svg

<svg height="48pt" viewBox="0 0 48 48" width="48pt" xmlns="http://www.w3.org/2000/svg" xmlns:xlink="http://www.w3.org/1999/xlink"><linearGradient id="a"><stop offset="0" stop-opacity=".313725"/><stop offset=".222222" stop-opacity=".27451"/><stop offset="1" stop-opacity="0"/></linearGradient><radialGradient id="b" cx="450.908936" cy="189.579361" gradientTransform="matrix(.00000026 -.117199 -.210958 -.00000015 51.40435 95.448122)" gradientUnits="userSpaceOnUse" r="21.166656" xlink:href="#a"/><radialGradient id="c" cx="450.908936" cy="189.579361" gradientTransform="matrix(-.00000026 .117199 .210958 .00000015 -27.589573 -11.236095)" gradientUnits="userSpaceOnUse" r="21.166656" xlink:href="#a"/><radialGradient id="d" cx="450.908936" cy="189.579361" gradientTransform="matrix(-.00000026 -.117199 .210958 -.00000015 -27.589573 95.448122)" gradientUnits="userSpaceOnUse" r="21.166656" xlink:href="#a"/><radialGradient id="e" cx="450.908936" cy="189.579361" gradientTransform="matrix(.00000026 .117199 -.210958 .00000015 51.404347 -11.236096)" gradientUnits="userSpaceOnUse" r="21.166656" xlink:href="#a"/><linearGradient id="f" gradientTransform="matrix(.113024 0 0 .326118 -8.781019 48.725526)" gradientUnits="userSpaceOnUse" x1="305.954559" x2="305.954559" y1="-20.466932" y2="-135.329163"><stop offset="0" stop-color="#7986cb"/><stop offset="1" stop-color="#9fa8da"/></linearGradient><linearGradient id="g" gradientUnits="userSpaceOnUse" x1="11.907408" x2="11.907408" y1="42.05096580616" y2="4.34417306195"><stop offset="0" stop-color="#80deea"/><stop offset="1" stop-color="#b2ebf2"/></linearGradient><path d="m11.90625 42.105469h3.96875v-1.984375h-3.96875zm0 0" fill="url(#b)"/><path d="m11.90625 42.105469h-3.96875v1.984375h3.96875zm0 0" fill="url(#c)"/><path d="m11.90625 42.105469h-3.96875v-1.984375h3.96875zm0 0" fill="url(#d)"/><path d="m11.90625 42.105469h3.96875v1.984375h-3.96875zm0 0" fill="url(#e)"/><path d="m4.960938 4.59375c-1.097657 0-1.984376.882812-1.984376 1.984375v26.789063c0 1.101562.886719 1.984374 1.984376 1.984374h4.960937v4.714844c0 1.097656.886719 1.984375 1.984375 1.984375 1.828125 0 4.070312-3.773437 5.964844-6.699219h24.796875c1.101562 0 1.984375-.882812 1.984375-1.984374v-26.789063c0-1.101563-.882813-1.984375-1.984375-1.984375zm0 0" fill="url(#f)"/><path d="m4.960938 4.59375c-1.097657 0-1.984376.882812-1.984376 1.984375v26.789063c0 .03125 0 .058593.003907.085937v.011719c0 .027344 0 .054687.003906.078125v.015625c.003906.027344.007813.050781.011719.078125v.011719c.003906.027343.007812.050781.011718.078124 0 .003907.003907.007813.003907.011719.003906.019531.007812.035157.011719.054688.003906.015625.007812.035156.011718.050781s.003906.027344.007813.039062c.007812.019532.011719.035157.015625.050782s.007812.027344.011718.039062c.003907.019532.011719.035156.019532.054688.003906.011718.007812.023437.011718.035156.007813.019531.011719.035156.019532.054688.003906.011718.007812.019531.011718.03125.011719.023437.023438.046874.03125.066406.003907.007812.007813.011718.007813.015625.015625.027343.027344.054687.042969.082031.003906.007812.011718.019531.015625.03125.011719.015625.019531.03125.027343.046875.007813.011719.015626.019531.019532.03125.011718.015625.019531.03125.03125.046875.007812.011719.015625.023438.023437.035156.007813.011719.019531.027344.027344.039063s.015625.023437.027344.03125c.007812.015625.019531.027343.027343.042969.011719.007812.019532.019531.027344.03125.011719.011718.023438.023437.03125.035156.011719.011718.019532.023437.03125.03125.011719.011718.023438.027344.035156.039062.007813.007813.015626.015625.027344.027344l.035156.035156c.011719.007813.019532.019532.03125.027344.011719.011719.027344.023438.039063.035156.011719.007813.019531.015625.027344.023438.023437.019531.046875.039062.070312.054687.011719.007813.023438.015625.03125.023438.015625.011719.027344.019531.042969.027343.011719.011719.023438.019532.035156.027344.015625.007813.027344.015625.042969.023438.011719.007812.023437.015625.035156.023437.015625.007813.027344.015625.042969.023438.011719.007812.023438.015625.039062.019531.011719.007812.027344.015625.039063.023438.015625.007812.027344.011718.042969.019531.011718.003906.027344.011719.042968.019531.011719.003906.027344.011719.042969.015625.011719.007813.027344.011719.039063.019531.015625.003906.03125.007813.046875.015625.011719.003907.027343.007813.039062.011719.015625.007812.03125.011719.046875.015625s.027344.007813.042969.011719.03125.011718.046875.015625c.011719.003906.027344.003906.039062.007812.042969.011719.089844.019531.136719.027344.105469.015625.210938.023437.316407.023437h4.960937v4.714844c0 1.097656.886719 1.984375 1.984375 1.984375 1.828125 0 4.070312-3.773437 5.964844-6.699219h2.707031l.027344-.023437h11.011719c.082031-.066406.164062-.125.246093-.195313 5.996094-5.214843 7.820313-15.234374 2.257813-21.453124-2.183594-2.441407-5.40625-3.902344-8.589844-3.933594-2.367188-.023438-5.207031.738281-7.09375 2.472656-2.945312 2.710938-3.820312 8.308594-.898438 11.375 1.882813 1.980469 5.753907 2.554688 7.820313.511719 1.285156-1.269531 1.652344-3.816407.261719-5.160157-.824219-.796874-2.277344-1.019531-3.113282-.105468-.476562.515625-.605468 1.410156-.027343 1.90625.308593.261718.832031.328125 1.105469-.019532.136718-.167968.175781-.457031-.023438-.597656-.089844-.0625-.238281-.074218-.300781.027344-.019531.042969-.027344.105469.023437.132812.019532.011719.054688.011719.054688-.011718v-.015625c-.027344-.007813 0-.015625 0-.015625.019531-.007813.042968.007812.042968.027344.011719.050781-.035156.097656-.082031.109374-.125.027344-.210937-.089843-.234375-.195312-.042968-.238281.183594-.417969.402344-.441406.441406-.050782.765625.367187.796875.769531.058594.753906-.664063 1.300781-1.367187 1.332031-1.238282.054688-2.097657-1.128906-2.125-2.277344-.03125-1.933593 1.820312-3.089843 3.625-3.082031 2.90625.015625 4.890624 2.636719 4.820312 5.367188-.109375 4.230469-4.195312 7.691406-8.195312 7.523437-6.015626-.25-10.65625-6.675781-10.335938-12.371094.339844-6.027343 5.011719-10.566406 10.574219-12.414062zm0 0" fill="url(#g)"/><path d="m4.960938 4.59375c-1.097657 0-1.984376.882812-1.984376 1.984375v.246094c0-1.097657.886719-1.984375 1.984376-1.984375h37.707031c1.101562 0 1.984375.886718 1.984375 1.984375v-.246094c0-1.101563-.882813-1.984375-1.984375-1.984375zm0 0" fill="#fbfbfb" fill-opacity=".392157"/><path d="m2.976562 33.121094v.246094c0 1.101562.886719 1.984374 1.984376 1.984374h4.960937v-.246093h-4.960937c-1.097657 0-1.984376-.886719-1.984376-1.984375zm41.675782 0c0 1.097656-.882813 1.984375-1.984375 1.984375h-24.796875c-1.894532 2.921875-4.136719 6.699219-5.964844 6.699219-1.097656 0-1.984375-.886719-1.984375-1.988282v.25c0 1.097656.886719 1.984375 1.984375 1.984375 1.828125 0 4.070312-3.773437 5.964844-6.699219h24.796875c1.101562 0 1.984375-.882812 1.984375-1.984374zm0 0" fill-opacity=".235294"/><path d="m4.960938 4.453125c-1.175782 0-2.125.949219-2.125 2.125v26.789063c0 1.175781.949218 2.125 2.125 2.125h4.820312v4.574218c0 1.175782.953125 2.125 2.125 2.125.507812 0 1.015625-.257812 1.523438-.667968.511718-.410157 1.027343-.980469 1.542968-1.640626 1.019532-1.296874 2.039063-2.945312 2.972656-4.390624h24.722657c1.175781 0 2.125-.949219 2.125-2.125v-26.789063c0-1.175781-.949219-2.125-2.125-2.125zm0 .28125h37.707031c1.023437 0 1.84375.820313 1.84375 1.84375v26.789063c0 1.023437-.820313 1.84375-1.84375 1.84375h-24.875l-.042969.066406c-.945312 1.460937-1.980469 3.132812-2.996094 4.433594-.511718.648437-1.015625 1.207031-1.5 1.59375-.480468.390624-.9375.605468-1.347656.605468-1.023438 0-1.84375-.820312-1.84375-1.84375v-4.855468h-5.101562c-1.023438 0-1.84375-.820313-1.84375-1.84375v-26.789063c0-1.023437.820312-1.84375 1.84375-1.84375zm0 0" fill="#212121"/></svg>

<?xml version="1.0" encoding="UTF-8"?>
<svg xmlns="http://www.w3.org/2000/svg" xmlns:xlink="http://www.w3.org/1999/xlink" width="48pt" height="48pt" viewBox="0 0 48 48" version="1.1">
<defs>
<radialGradient id="radial0" gradientUnits="userSpaceOnUse" cx="450.908936" cy="189.579361" fx="450.908936" fy="189.579361" r="21.166656" gradientTransform="matrix(0.000000261256,-0.117199,-0.210958,-0.000000152308,51.40435,95.448122)">
<stop offset="0" style="stop-color:rgb(0%,0%,0%);stop-opacity:0.313725;"/>
<stop offset="0.222222" style="stop-color:rgb(0%,0%,0%);stop-opacity:0.27451;"/>
<stop offset="1" style="stop-color:rgb(0%,0%,0%);stop-opacity:0;"/>
</radialGradient>
<radialGradient id="radial1" gradientUnits="userSpaceOnUse" cx="450.908936" cy="189.579361" fx="450.908936" fy="189.579361" r="21.166656" gradientTransform="matrix(-0.000000261256,0.117199,0.210958,0.000000152308,-27.589573,-11.236095)">
<stop offset="0" style="stop-color:rgb(0%,0%,0%);stop-opacity:0.313725;"/>
<stop offset="0.222222" style="stop-color:rgb(0%,0%,0%);stop-opacity:0.27451;"/>
<stop offset="1" style="stop-color:rgb(0%,0%,0%);stop-opacity:0;"/>
</radialGradient>
<radialGradient id="radial2" gradientUnits="userSpaceOnUse" cx="450.908936" cy="189.579361" fx="450.908936" fy="189.579361" r="21.166656" gradientTransform="matrix(-0.000000261256,-0.117199,0.210958,-0.000000152308,-27.589573,95.448122)">
<stop offset="0" style="stop-color:rgb(0%,0%,0%);stop-opacity:0.313725;"/>
<stop offset="0.222222" style="stop-color:rgb(0%,0%,0%);stop-opacity:0.27451;"/>
<stop offset="1" style="stop-color:rgb(0%,0%,0%);stop-opacity:0;"/>
</radialGradient>
<radialGradient id="radial3" gradientUnits="userSpaceOnUse" cx="450.908936" cy="189.579361" fx="450.908936" fy="189.579361" r="21.166656" gradientTransform="matrix(0.000000261256,0.117199,-0.210958,0.000000152308,51.404347,-11.236096)">
<stop offset="0" style="stop-color:rgb(0%,0%,0%);stop-opacity:0.313725;"/>
<stop offset="0.222222" style="stop-color:rgb(0%,0%,0%);stop-opacity:0.27451;"/>
<stop offset="1" style="stop-color:rgb(0%,0%,0%);stop-opacity:0;"/>
</radialGradient>
<linearGradient id="linear0" gradientUnits="userSpaceOnUse" x1="305.954559" y1="-20.466932" x2="305.954559" y2="-135.329163" gradientTransform="matrix(0.113024,0,0,0.326118,-8.781019,48.725526)">
<stop offset="0" style="stop-color:rgb(47.45098%,52.54902%,79.607843%);stop-opacity:1;"/>
<stop offset="1" style="stop-color:rgb(62.352941%,65.882353%,85.490196%);stop-opacity:1;"/>
</linearGradient>
<linearGradient id="linear1" gradientUnits="userSpaceOnUse" x1="480" y1="1695.118164" x2="480" y2="175.118134" gradientTransform="matrix(0.0248071,0,0,0.0248071,0,0)">
<stop offset="0" style="stop-color:rgb(50.196078%,87.058824%,91.764706%);stop-opacity:1;"/>
<stop offset="1" style="stop-color:rgb(69.803922%,92.156863%,94.901961%);stop-opacity:1;"/>
</linearGradient>
</defs>
<g id="surface1">
<path style=" stroke:none;fill-rule:nonzero;fill:url(#radial0);" d="M 11.90625 42.105469 L 15.875 42.105469 L 15.875 40.121094 L 11.90625 40.121094 Z M 11.90625 42.105469 "/>
<path style=" stroke:none;fill-rule:nonzero;fill:url(#radial1);" d="M 11.90625 42.105469 L 7.9375 42.105469 L 7.9375 44.089844 L 11.90625 44.089844 Z M 11.90625 42.105469 "/>
<path style=" stroke:none;fill-rule:nonzero;fill:url(#radial2);" d="M 11.90625 42.105469 L 7.9375 42.105469 L 7.9375 40.121094 L 11.90625 40.121094 Z M 11.90625 42.105469 "/>
<path style=" stroke:none;fill-rule:nonzero;fill:url(#radial3);" d="M 11.90625 42.105469 L 15.875 42.105469 L 15.875 44.089844 L 11.90625 44.089844 Z M 11.90625 42.105469 "/>
<path style=" stroke:none;fill-rule:nonzero;fill:url(#linear0);" d="M 4.960938 4.59375 C 3.863281 4.59375 2.976562 5.476562 2.976562 6.578125 L 2.976562 33.367188 C 2.976562 34.46875 3.863281 35.351562 4.960938 35.351562 L 9.921875 35.351562 L 9.921875 40.066406 C 9.921875 41.164062 10.808594 42.050781 11.90625 42.050781 C 13.734375 42.050781 15.976562 38.277344 17.871094 35.351562 L 42.667969 35.351562 C 43.769531 35.351562 44.652344 34.46875 44.652344 33.367188 L 44.652344 6.578125 C 44.652344 5.476562 43.769531 4.59375 42.667969 4.59375 Z M 4.960938 4.59375 "/>
<path style=" stroke:none;fill-rule:nonzero;fill:url(#linear1);" d="M 4.960938 4.59375 C 3.863281 4.59375 2.976562 5.476562 2.976562 6.578125 L 2.976562 33.367188 C 2.976562 33.398438 2.976562 33.425781 2.980469 33.453125 C 2.980469 33.457031 2.980469 33.460938 2.980469 33.464844 C 2.980469 33.492188 2.980469 33.519531 2.984375 33.542969 C 2.984375 33.550781 2.984375 33.554688 2.984375 33.558594 C 2.988281 33.585938 2.992188 33.609375 2.996094 33.636719 C 2.996094 33.640625 2.996094 33.644531 2.996094 33.648438 C 3 33.675781 3.003906 33.699219 3.007812 33.726562 C 3.007812 33.730469 3.011719 33.734375 3.011719 33.738281 C 3.015625 33.757812 3.019531 33.773438 3.023438 33.792969 C 3.027344 33.808594 3.03125 33.828125 3.035156 33.84375 C 3.039062 33.859375 3.039062 33.871094 3.042969 33.882812 C 3.050781 33.902344 3.054688 33.917969 3.058594 33.933594 C 3.0625 33.949219 3.066406 33.960938 3.070312 33.972656 C 3.074219 33.992188 3.082031 34.007812 3.089844 34.027344 C 3.09375 34.039062 3.097656 34.050781 3.101562 34.0625 C 3.109375 34.082031 3.113281 34.097656 3.121094 34.117188 C 3.125 34.128906 3.128906 34.136719 3.132812 34.148438 C 3.144531 34.171875 3.15625 34.195312 3.164062 34.214844 C 3.167969 34.222656 3.171875 34.226562 3.171875 34.230469 C 3.1875 34.257812 3.199219 34.285156 3.214844 34.3125 C 3.21875 34.320312 3.226562 34.332031 3.230469 34.34375 C 3.242188 34.359375 3.25 34.375 3.257812 34.390625 C 3.265625 34.402344 3.273438 34.410156 3.277344 34.421875 C 3.289062 34.4375 3.296875 34.453125 3.308594 34.46875 C 3.316406 34.480469 3.324219 34.492188 3.332031 34.503906 C 3.339844 34.515625 3.351562 34.53125 3.359375 34.542969 C 3.367188 34.554688 3.375 34.566406 3.386719 34.574219 C 3.394531 34.589844 3.40625 34.601562 3.414062 34.617188 C 3.425781 34.625 3.433594 34.636719 3.441406 34.648438 C 3.453125 34.660156 3.464844 34.671875 3.472656 34.683594 C 3.484375 34.695312 3.492188 34.707031 3.503906 34.714844 C 3.515625 34.726562 3.527344 34.742188 3.539062 34.753906 C 3.546875 34.761719 3.554688 34.769531 3.566406 34.78125 C 3.578125 34.792969 3.589844 34.804688 3.601562 34.816406 C 3.613281 34.824219 3.621094 34.835938 3.632812 34.84375 C 3.644531 34.855469 3.660156 34.867188 3.671875 34.878906 C 3.683594 34.886719 3.691406 34.894531 3.699219 34.902344 C 3.722656 34.921875 3.746094 34.941406 3.769531 34.957031 C 3.78125 34.964844 3.792969 34.972656 3.800781 34.980469 C 3.816406 34.992188 3.828125 35 3.84375 35.007812 C 3.855469 35.019531 3.867188 35.027344 3.878906 35.035156 C 3.894531 35.042969 3.90625 35.050781 3.921875 35.058594 C 3.933594 35.066406 3.945312 35.074219 3.957031 35.082031 C 3.972656 35.089844 3.984375 35.097656 4 35.105469 C 4.011719 35.113281 4.023438 35.121094 4.039062 35.125 C 4.050781 35.132812 4.066406 35.140625 4.078125 35.148438 C 4.09375 35.15625 4.105469 35.160156 4.121094 35.167969 C 4.132812 35.171875 4.148438 35.179688 4.164062 35.1875 C 4.175781 35.191406 4.191406 35.199219 4.207031 35.203125 C 4.21875 35.210938 4.234375 35.214844 4.246094 35.222656 C 4.261719 35.226562 4.277344 35.230469 4.292969 35.238281 C 4.304688 35.242188 4.320312 35.246094 4.332031 35.25 C 4.347656 35.257812 4.363281 35.261719 4.378906 35.265625 C 4.394531 35.269531 4.40625 35.273438 4.421875 35.277344 C 4.4375 35.28125 4.453125 35.289062 4.46875 35.292969 C 4.480469 35.296875 4.496094 35.296875 4.507812 35.300781 C 4.550781 35.3125 4.597656 35.320312 4.644531 35.328125 C 4.75 35.34375 4.855469 35.351562 4.960938 35.351562 L 9.921875 35.351562 L 9.921875 40.066406 C 9.921875 41.164062 10.808594 42.050781 11.90625 42.050781 C 13.734375 42.050781 15.976562 38.277344 17.871094 35.351562 L 20.578125 35.351562 L 20.605469 35.328125 L 31.617188 35.328125 C 31.699219 35.261719 31.78125 35.203125 31.863281 35.132812 C 37.859375 29.917969 39.683594 19.898438 34.121094 13.679688 C 31.9375 11.238281 28.714844 9.777344 25.53125 9.746094 C 23.164062 9.722656 20.324219 10.484375 18.4375 12.21875 C 15.492188 14.929688 14.617188 20.527344 17.539062 23.59375 C 19.421875 25.574219 23.292969 26.148438 25.359375 24.105469 C 26.644531 22.835938 27.011719 20.289062 25.621094 18.945312 C 24.796875 18.148438 23.34375 17.925781 22.507812 18.839844 C 22.03125 19.355469 21.902344 20.25 22.480469 20.746094 C 22.789062 21.007812 23.3125 21.074219 23.585938 20.726562 C 23.722656 20.558594 23.761719 20.269531 23.5625 20.128906 C 23.472656 20.066406 23.324219 20.054688 23.261719 20.15625 C 23.242188 20.199219 23.234375 20.261719 23.285156 20.289062 C 23.304688 20.300781 23.339844 20.300781 23.339844 20.277344 L 23.339844 20.261719 C 23.3125 20.253906 23.339844 20.246094 23.339844 20.246094 C 23.359375 20.238281 23.382812 20.253906 23.382812 20.273438 C 23.394531 20.324219 23.347656 20.371094 23.300781 20.382812 C 23.175781 20.410156 23.089844 20.292969 23.066406 20.1875 C 23.023438 19.949219 23.25 19.769531 23.46875 19.746094 C 23.910156 19.695312 24.234375 20.113281 24.265625 20.515625 C 24.324219 21.269531 23.601562 21.816406 22.898438 21.847656 C 21.660156 21.902344 20.800781 20.71875 20.773438 19.570312 C 20.742188 17.636719 22.59375 16.480469 24.398438 16.488281 C 27.304688 16.503906 29.289062 19.125 29.21875 21.855469 C 29.109375 26.085938 25.023438 29.546875 21.023438 29.378906 C 15.007812 29.128906 10.367188 22.703125 10.6875 17.007812 C 11.027344 10.980469 15.699219 6.441406 21.261719 4.59375 Z M 4.960938 4.59375 "/>
<path style=" stroke:none;fill-rule:nonzero;fill:rgb(98.431373%,98.431373%,98.431373%);fill-opacity:0.392157;" d="M 4.960938 4.59375 C 3.863281 4.59375 2.976562 5.476562 2.976562 6.578125 L 2.976562 6.824219 C 2.976562 5.726562 3.863281 4.839844 4.960938 4.839844 L 42.667969 4.839844 C 43.769531 4.839844 44.652344 5.726562 44.652344 6.824219 L 44.652344 6.578125 C 44.652344 5.476562 43.769531 4.59375 42.667969 4.59375 Z M 4.960938 4.59375 "/>
<path style=" stroke:none;fill-rule:nonzero;fill:rgb(0%,0%,0%);fill-opacity:0.235294;" d="M 2.976562 33.121094 L 2.976562 33.367188 C 2.976562 34.46875 3.863281 35.351562 4.960938 35.351562 L 9.921875 35.351562 L 9.921875 35.105469 L 4.960938 35.105469 C 3.863281 35.105469 2.976562 34.21875 2.976562 33.121094 Z M 44.652344 33.121094 C 44.652344 34.21875 43.769531 35.105469 42.667969 35.105469 L 17.871094 35.105469 C 15.976562 38.027344 13.734375 41.804688 11.90625 41.804688 C 10.808594 41.804688 9.921875 40.917969 9.921875 39.816406 L 9.921875 40.066406 C 9.921875 41.164062 10.808594 42.050781 11.90625 42.050781 C 13.734375 42.050781 15.976562 38.277344 17.871094 35.351562 L 42.667969 35.351562 C 43.769531 35.351562 44.652344 34.46875 44.652344 33.367188 Z M 44.652344 33.121094 "/>
<path style=" stroke:none;fill-rule:nonzero;fill:rgb(12.941177%,12.941177%,12.941177%);fill-opacity:1;" d="M 4.960938 4.453125 C 3.785156 4.453125 2.835938 5.402344 2.835938 6.578125 L 2.835938 33.367188 C 2.835938 34.542969 3.785156 35.492188 4.960938 35.492188 L 9.78125 35.492188 L 9.78125 40.066406 C 9.78125 41.242188 10.734375 42.191406 11.90625 42.191406 C 12.414062 42.191406 12.921875 41.933594 13.429688 41.523438 C 13.941406 41.113281 14.457031 40.542969 14.972656 39.882812 C 15.992188 38.585938 17.011719 36.9375 17.945312 35.492188 L 42.667969 35.492188 C 43.84375 35.492188 44.792969 34.542969 44.792969 33.367188 L 44.792969 6.578125 C 44.792969 5.402344 43.84375 4.453125 42.667969 4.453125 Z M 4.960938 4.734375 L 42.667969 4.734375 C 43.691406 4.734375 44.511719 5.554688 44.511719 6.578125 L 44.511719 33.367188 C 44.511719 34.390625 43.691406 35.210938 42.667969 35.210938 L 17.792969 35.210938 L 17.75 35.277344 C 16.804688 36.738281 15.769531 38.410156 14.753906 39.710938 C 14.242188 40.359375 13.738281 40.917969 13.253906 41.304688 C 12.773438 41.695312 12.316406 41.910156 11.90625 41.910156 C 10.882812 41.910156 10.0625 41.089844 10.0625 40.066406 L 10.0625 35.210938 L 4.960938 35.210938 C 3.9375 35.210938 3.117188 34.390625 3.117188 33.367188 L 3.117188 6.578125 C 3.117188 5.554688 3.9375 4.734375 4.960938 4.734375 Z M 4.960938 4.734375 "/>
</g>
</svg>
